src/assets/img/html-five2.svg

<!-- Generated by IcoMoon.io -->
<svg version="1.1" xmlns="http://www.w3.org/2000/svg" width="32" height="32" viewBox="0 0 32 32">
<title>html-five2</title>
<path fill="#fff" d="M1.892 0l2.567 28.801 11.524 3.199 11.554-3.204 2.572-28.796h-28.216zM25.336 26.963l-9.288 2.574v0.015l-0.024-0.007-0.024 0.007v-0.015l-9.288-2.574-2.195-24.609h23.015l-2.195 24.609zM20.336 16.569l-0.408 4.58-3.944 1.065-3.933-1.060-0.252-2.82h-3.547l0.495 5.547 7.252 2.006 7.229-2.006 0.97-10.844h-12.874l-0.322-3.617h13.517l0.316-3.532h-17.694l0.953 10.681z"></path>
</svg>

<svg xmlns="http://www.w3.org/2000/svg" width="32" height="32"><path fill="#fff" d="M1.892 0l2.567 28.801L15.983 32l11.554-3.204L30.109 0H1.893zm23.444 26.963l-9.288 2.574v.015l-.024-.007-.024.007v-.015l-9.288-2.574L4.517 2.354h23.015l-2.195 24.609zm-5-10.394l-.408 4.58-3.944 1.065-3.933-1.06-.252-2.82H8.252l.495 5.547 7.252 2.006 7.229-2.006.97-10.844H11.324l-.322-3.617h13.517l.316-3.532H7.141l.953 10.681z"/></svg>
